picto/people-with-limited-mobility-frail.svg

<svg class="color-immutable" width="24" height="24" viewBox="0 0 24 24" fill="none" xmlns="http://www.w3.org/2000/svg"><path d="M0 22.5V1.5C0 0.675 0.675 0 1.5 0H22.5C23.325 0 24 0.675 24 1.5V22.5C24 23.325 23.325 24 22.5 24H1.5C0.675 24 0 23.325 0 22.5Z" fill="#2D327D"/><path d="M14.499 16.509H10.196V16.512H9.32702C9.17902 16.512 9.02402 16.394 8.98602 16.249L6.48902 6.88099C6.48402 6.86299 6.47702 6.84199 6.46802 6.81899L6.41502 6.61599C6.36002 6.41199 6.15002 6.29099 5.94702 6.34399C5.74302 6.39899 5.62002 6.60899 5.67602 6.81299L7.84902 14.973C7.85202 14.972 7.85202 14.972 7.85202 14.972L8.39902 17.016C8.43702 17.16 8.59202 17.277 8.74002 17.277H14.234C14.247 17.277 14.264 17.275 14.278 17.274H14.501C14.713 17.274 14.884 17.104 14.884 16.892C14.881 16.681 14.711 16.509 14.499 16.509Z" fill="white"/><path d="M18.328 19.988L17.118 14.902C17.02 14.548 16.652 14.271 16.287 14.271H15.477C15.635 13.912 15.723 13.515 15.723 13.098C15.723 11.482 14.412 10.171 12.796 10.171C12.554 10.171 12.32 10.201 12.096 10.257L12.053 10.1C12.048 10.084 12.039 10.065 12.035 10.047L11.833 9.27499C11.623 8.46999 10.8 7.98899 9.99604 8.20099C9.19204 8.41099 8.71104 9.23599 8.92304 10.039H8.92104L9.01004 10.38C9.00704 10.379 9.00504 10.379 9.00304 10.378L9.38704 11.816L9.87604 13.675L9.88004 13.674L10.261 15.134C10.354 15.48 10.723 15.763 11.08 15.763L15.763 15.76L16.335 18.177H16.332C16.335 18.19 16.338 18.203 16.342 18.215C16.345 18.228 16.348 18.241 16.352 18.253L16.851 20.361C16.968 20.686 17.288 20.897 17.639 20.865C18.06 20.827 18.373 20.452 18.334 20.03C18.333 20.016 18.33 20.002 18.328 19.988Z" fill="white"/><path d="M11.367 6.17999C11.367 7.00699 10.696 7.67699 9.868 7.67699C9.04 7.67799 8.37 7.00699 8.37 6.17999C8.37 5.35199 9.04 4.67999 9.868 4.67999C10.697 4.68099 11.367 5.35199 11.367 6.17999Z" fill="white"/></svg>

<svg class="color-immutable" width="24" height="24" viewBox="0 0 24 24" fill="none" xmlns="http://www.w3.org/2000/svg"><g clip-path="url(#a)"><path d="M0 22.5v-21C0 .675.675 0 1.5 0h21c.825 0 1.5.675 1.5 1.5v21c0 .825-.675 1.5-1.5 1.5h-21C.675 24 0 23.325 0 22.5Z" fill="#2D327D"/><path d="M14.499 16.509h-4.303v.003h-.869a.374.374 0 0 1-.341-.263L6.489 6.881a.651.651 0 0 0-.021-.062l-.053-.203a.383.383 0 1 0-.739.197l2.173 8.16.003-.001.547 2.044a.373.373 0 0 0 .341.261h5.494l.044-.003h.223c.212 0 .383-.17.383-.382a.387.387 0 0 0-.385-.383Z" fill="#fff"/><path d="m18.328 19.988-1.21-5.086a.902.902 0 0 0-.831-.631h-.81a2.928 2.928 0 0 0-3.381-4.014l-.043-.157c-.005-.016-.014-.035-.018-.053l-.202-.772a1.504 1.504 0 1 0-2.91.764h-.002l.089.341-.007-.002.384 1.438.489 1.859.004-.001.381 1.46a.898.898 0 0 0 .819.629l4.683-.003.572 2.417h-.003a.421.421 0 0 0 .01.038.421.421 0 0 0 .01.038l.499 2.108a.763.763 0 0 0 .788.504.769.769 0 0 0 .695-.835l-.006-.042ZM11.367 6.18a1.498 1.498 0 1 1-2.996-.002 1.498 1.498 0 0 1 2.996.002Z" fill="#fff"/></g><defs><clipPath id="a"><path fill="#fff" d="M0 0h24v24H0z"/></clipPath></defs></svg>
